X:557
T: LIEBCHEN LASS DICH KUESSEN
N: F1095
O: Europa, Mitteleuropa, Deutschland
R: Wiegen - Lied
M: 6/8
L: 1/16
K: F
 | c2A2F2F2E2F2 | d6c6
A3GF2F2E2F2 | G8z4
G4f2e4d2 | d4c2c2=B2A2
A4G2G2f2B2 | c4z6
dc | c4G2d4c2 | c6z4
c2 | A4c2G4c2 | F6z4
c2 | A4c2G4A2 | F4z8

